X:1
T:Bonnie Woodhall
T:Bonny Woodhall
T:Planxty tinwhistle D mandola CGDA 
T: trad., arr. A. Irvine 
C:traditional
L:1/8
Q:1/4=80
M:3/4
K:G
V:1 treble nm="Piano" snm="Pno."
V:1
 (de) | f a3 (ag) | f d3 (de) | (fa) (gd) d2 | d6 | z2 z2 a2 | b b3 d'2 | b2 a2 z f | g2 f2 (df) | %9
 e6- | e4 (de) | (fa) b d'3 | b a3 f2 | g2 f2 e2 | d4 (de) | f a3 (ag) | f2 d2 z d | (ef) a g2 d | %18
 d6 |] %19

